!!!SOCIAL_FUNCTION:	tobacco dance songs
!!!PDT:	1932
!!!OTL: No_109_Tobacco_Dance_Song_(a).krn
!!!REG: Wisconsin
!!!LANG: Non-Tone
!!!LING_GROUP: Algonquin
**kern
*staff1
=1-
*clefF4
*k[b-e-a-d-]
*M2/4
[2E-\
=2
2E-\_
=3
4E-\]
4r
=4!|:
8.B-\L
16G\Jk
4B-;\
=5||
*M3/4
2G\
4r
=6||
*M2/4
8.c\L
16B-\Jk
8.A-\L
16E-\Jk
=7
4E-\
4E-\
=8
8.A-\L
16E-\Jk
4F\
=9
4E-\
8E-\
8r
=10
8.C/L
16E-/Jk
4E-\
=11
4E-\
4E-\
=12
8.A-\L
16E-\Jk
4F\
=13
4E-\
8E-\
8r
=14||
*M3/4
8.C/L
16E-/Jk
4E-\
4E-\
=15||
*M2/4
8.A-\L
16E-\Jk
4F\
=16
4E-\
8E-\
8r
==:|!
*-
